icons/lines/volume-mute.svg

<svg xmlns="http://www.w3.org/2000/svg" width="24" height="24" viewBox="0 0 24 24" fill="none" stroke="currentColor" stroke-width="2" stroke-linecap="round" stroke-linejoin="round" >
  <path d="M5.5 9.99997V14C5.5 16 6.5 17 8.5 17H9.93C10.3 17 10.67 17.11 10.99 17.3L13.91 19.13C16.43 20.71 18.5 19.56 18.5 16.59V7.40997C18.5 4.42997 16.43 3.28997 13.91 4.86997L10.99 6.69997C10.67 6.88997 10.3 6.99997 9.93 6.99997H8.5C6.5 6.99997 5.5 7.99997 5.5 9.99997Z"/>
  </svg>

<svg xmlns="http://www.w3.org/2000/svg" width="24" height="24" viewBox="0 0 24 24" fill="none" stroke="currentColor" stroke-width="2" stroke-linecap="round" stroke-linejoin="round">
  <path d="M5.5 14q0 3 3 3h1.43a2 2 0 0 1 1.06.3l2.92 1.83c2.52 1.58 4.59.43 4.59-2.54V7.41c0-2.98-2.07-4.12-4.59-2.54L10.99 6.7a2 2 0 0 1-1.06.3H8.5q-3 0-3 3z" />
</svg>
